public/CompactLogo.svg

<svg width="380" height="274" viewBox="0 0 380 274" fill="none" xmlns="http://www.w3.org/2000/svg">
<path d="M274 137C274 212.663 212.663 274 137 274C61.337 274 0 212.663 0 137C0 61.3375 61.337 0.000488281 137 0.000488281C212.663 0.000488281 274 61.3375 274 137Z" fill="white"/>
<path d="M137 0C203.748 0.000145497 259.346 47.7344 271.522 110.928V135.65C271.522 136.639 271.833 137.445 272.455 138.067C272.88 138.492 273.391 138.77 273.986 138.905C273.803 152.274 271.705 165.18 267.955 177.361C265.69 178.509 263.364 179.947 260.979 181.678V178.219C260.979 177.23 260.667 176.425 260.045 175.803C259.423 175.144 258.617 174.814 257.629 174.813H245.327C244.376 174.814 243.57 175.144 242.911 175.803C242.289 176.425 241.978 177.23 241.978 178.219V225.028C216.847 254.967 179.147 274.001 137 274.001C61.3375 274.001 0.000569135 212.664 0.000305176 137.001C0.000305176 61.338 61.3373 0 137 0ZM193.049 156.253C172.475 156.29 160.32 163.428 156.585 177.669L142.802 229.948C142.692 230.424 142.619 230.973 142.582 231.596C142.582 232.218 142.894 232.95 143.516 233.792C144.138 234.597 145.163 235.001 146.591 235.001H157.409C158.837 235.001 160.192 234.524 161.473 233.572C162.754 232.584 163.578 231.34 163.944 229.839L167.623 216H206.667V229.839C206.667 231.34 207.144 232.584 208.096 233.572C209.084 234.524 210.329 235.001 211.829 235.001H222.154C223.581 235.001 224.808 234.524 225.833 233.572C226.858 232.584 227.37 231.376 227.37 229.948V161.359C227.37 160.005 226.913 158.815 225.997 157.79C225.119 156.765 224.002 156.253 222.648 156.253H193.049ZM285.361 173.716C286.349 173.716 287.154 174.045 287.777 174.704C288.436 175.326 288.766 176.114 288.766 177.065V185.412C288.766 186.401 288.436 187.207 287.777 187.829C287.154 188.451 286.349 188.762 285.361 188.762H283.604L275.147 188.433C270.204 188.433 265.482 191.142 260.979 196.561V231.65C260.979 232.639 260.65 233.445 259.991 234.067C259.368 234.69 258.581 235.001 257.629 235.001H245.327C244.339 235.001 243.534 234.69 242.911 234.067C242.289 233.445 241.978 232.639 241.978 231.65V225.028C253.586 211.199 262.512 195.044 267.955 177.361C269.237 176.712 270.498 176.155 271.742 175.692C275.219 174.374 279.759 173.716 285.361 173.716ZM312.543 176.187C313.532 176.187 314.338 176.516 314.96 177.175C315.583 177.797 315.894 178.584 315.894 179.536V231.65C315.894 232.639 315.564 233.445 314.905 234.067C314.282 234.689 313.495 235.001 312.543 235.001H300.242C299.254 235.001 298.449 234.69 297.826 234.067C297.204 233.445 296.893 232.639 296.893 231.65V179.536C296.893 178.548 297.204 177.742 297.826 177.12C298.485 176.498 299.291 176.187 300.242 176.187H312.543ZM361.088 155.154C367.092 155.154 371.284 155.374 373.663 155.813C376.043 156.253 377.545 156.802 378.167 157.461C378.789 158.083 379.101 158.815 379.101 159.657V165.698C379.101 166.687 378.771 167.51 378.112 168.169C377.489 168.791 376.702 169.103 375.75 169.103H373.719L366.141 168.169C358.856 168.169 354.114 169.158 351.917 171.135C349.721 173.075 348.622 177.12 348.622 183.271V184.149H368.502C369.429 184.149 370.194 184.439 370.799 185.019L371.037 185.257C371.617 185.862 371.906 186.627 371.907 187.554V194.089C371.907 195.077 371.577 195.883 370.918 196.505C370.296 197.127 369.491 197.438 368.502 197.438H348.622V231.65C348.622 232.639 348.293 233.445 347.634 234.067C347.012 234.69 346.224 235.001 345.273 235.001H332.972C331.984 235.001 331.178 234.69 330.556 234.067C329.934 233.445 329.622 232.639 329.622 231.65V183.271C329.622 173.056 331.947 165.826 336.596 161.579C341.245 157.296 349.41 155.154 361.088 155.154ZM206.667 171.794V200.459H171.687L176.52 182.831C177.435 179.463 179.192 176.79 181.791 174.813C184.427 172.8 187.502 171.794 191.017 171.794H206.667ZM309.798 155.154C311.738 155.154 313.276 155.722 314.41 156.856C315.545 157.955 316.113 159.493 316.113 161.47V163.337C316.113 165.277 315.545 166.814 314.41 167.949C313.312 169.084 311.775 169.651 309.798 169.651H302.989C301.048 169.651 299.51 169.084 298.375 167.949C297.241 166.814 296.673 165.277 296.673 163.337V161.47C296.673 159.529 297.222 157.991 298.321 156.856C299.456 155.722 301.012 155.154 302.989 155.154H309.798ZM227.92 77.7158C217.23 77.7158 209.029 80.3512 203.318 85.623C197.607 90.8583 194.751 98.6199 194.751 108.907C194.751 119.158 197.607 126.92 203.318 132.191C209.029 137.463 217.23 140.099 227.92 140.099C238.647 140.099 246.865 137.463 252.576 132.191C258.288 126.92 261.143 119.158 261.143 108.907C261.143 98.6198 258.288 90.8583 252.576 85.623C246.865 80.3514 238.647 77.7159 227.92 77.7158ZM115.07 60.1426C113.642 60.1426 112.416 60.6738 111.391 61.7354C110.366 62.797 109.853 64.0419 109.853 65.4697V133.729C109.853 135.156 110.366 136.401 111.391 137.463C112.416 138.488 113.642 139.001 115.07 139.001H125.394C126.822 139.001 128.029 138.524 129.018 137.572C130.043 136.584 130.556 135.376 130.556 133.948V107.26H142.363C145.657 107.26 148.477 108.212 150.82 110.115C153.163 111.982 155.487 114.783 157.793 118.518L167.458 133.839C168.374 135.267 169.656 136.493 171.303 137.518C172.95 138.506 174.488 139.001 175.915 139.001H188.491C190.394 139.001 191.347 138.195 191.347 136.584C191.347 135.815 191.036 134.9 190.413 133.839L176.684 111.982C174.744 109.017 172.493 106.271 169.93 103.745C167.404 101.219 164.932 99.7 162.516 99.1875C165.957 98.3455 168.74 96.8988 170.864 94.8486C173.023 92.7985 174.963 90.1991 176.684 87.0508L188.601 65.4697C189.223 64.2982 189.534 63.2912 189.534 62.4492C189.534 60.9117 188.656 60.1427 186.899 60.1426H174.213C170.882 60.1792 168.245 61.9552 166.305 65.4697L157.793 80.626C155.597 84.5431 153.272 87.3804 150.82 89.1377C148.403 90.8949 145.584 91.7734 142.363 91.7734H130.556V65.4697C130.556 64.0419 130.043 62.797 129.018 61.7354C128.029 60.6737 126.822 60.1426 125.394 60.1426H115.07ZM287.173 80.1865C288.161 80.1866 288.967 80.516 289.589 81.1748C290.211 81.7971 290.523 82.5844 290.523 83.5361V135.65C290.523 136.639 290.193 137.445 289.534 138.067C288.912 138.69 288.125 139.001 287.173 139.001H274.872C274.558 139.001 274.263 138.968 273.986 138.905C273.994 138.272 274 137.637 274 137.001C274 128.085 273.148 119.368 271.522 110.928V83.5361C271.522 82.5479 271.833 81.7424 272.455 81.1201C273.114 80.4977 273.921 80.1865 274.872 80.1865H287.173ZM343.351 77.7158C350.49 77.7158 356.293 79.8935 360.759 84.25C365.225 88.57 367.458 95.1971 367.458 104.13V135.65C367.458 136.602 367.129 137.408 366.47 138.067C365.848 138.69 365.042 139.001 364.054 139.001H351.808C350.856 139.001 350.051 138.689 349.392 138.067C348.77 137.408 348.458 136.602 348.458 135.65V104.13C348.458 95.3801 344.962 91.0049 337.969 91.0049C333.393 91.0049 328.487 93.6224 323.252 98.8574V135.65C323.252 136.602 322.923 137.408 322.264 138.067C321.642 138.69 320.854 139.001 319.903 139.001H307.601C306.649 139.001 305.844 138.69 305.185 138.067C304.562 137.408 304.251 136.602 304.251 135.65V82.2188C304.251 81.2304 304.563 80.4251 305.185 79.8027C305.844 79.1438 306.649 78.8136 307.601 78.8135H319.903C320.854 78.8136 321.642 79.1439 322.264 79.8027C322.923 80.425 323.252 81.2305 323.252 82.2188V85.6777C329.549 80.3695 336.249 77.7158 343.351 77.7158ZM227.92 90.1816C232.826 90.1817 236.413 91.6638 238.683 94.6289C240.989 97.5943 242.143 102.336 242.143 108.853C242.143 115.369 240.989 120.128 238.683 123.13C236.413 126.132 232.826 127.633 227.92 127.633C223.051 127.633 219.481 126.132 217.211 123.13C214.942 120.128 213.807 115.369 213.807 108.853C213.807 102.336 214.941 97.5943 217.211 94.6289C219.481 91.6636 223.051 90.1816 227.92 90.1816ZM284.427 59.1543C286.367 59.1543 287.905 59.7215 289.04 60.8564C290.175 61.9547 290.742 63.4928 290.742 65.4697V67.3369C290.742 69.2769 290.175 70.8144 289.04 71.9492C287.942 73.0841 286.404 73.6514 284.427 73.6514H277.617C275.677 73.6513 274.14 73.0841 273.005 71.9492C271.87 70.8144 271.302 69.2771 271.302 67.3369V65.4697C271.302 63.5295 271.851 61.9913 272.95 60.8564C274.084 59.7216 275.641 59.1543 277.617 59.1543H284.427Z" fill="url(#paint0_linear_188_49)"/>
<defs>
<linearGradient id="paint0_linear_188_49" x1="128.652" y1="336.501" x2="-118.886" y2="-22.1632" gradientUnits="userSpaceOnUse">
<stop stop-color="#FFC370"/>
<stop offset="0.956731" stop-color="#B444FF"/>
</linearGradient>
</defs>
</svg>

<svg xmlns="http://www.w3.org/2000/svg" fill="none" viewBox="0 0 380 274"><path fill="#fff" d="M274 137c0 75.66-61.34 137-137 137S0 212.66 0 137 61.34 0 137 0s137 61.34 137 137Z"/><path fill="url(#a)" d="M137 0c66.75 0 122.35 47.73 134.52 110.93v24.72c0 .99.31 1.8.94 2.42.42.42.93.7 1.53.84a136.89 136.89 0 0 1-6.04 38.45 51.87 51.87 0 0 0-6.97 4.32v-3.46a3.27 3.27 0 0 0-3.35-3.4h-12.3a3.3 3.3 0 0 0-3.35 3.4v46.8A136.7 136.7 0 0 1 137 274C61.34 274 0 212.66 0 137S61.34 0 137 0Zm56.05 156.25c-20.58.04-32.73 7.18-36.47 21.42l-13.78 52.28c-.1.47-.18 1.02-.22 1.65 0 .62.31 1.35.94 2.2.62.8 1.64 1.2 3.07 1.2h10.82a6.7 6.7 0 0 0 4.06-1.43 6.58 6.58 0 0 0 2.47-3.73l3.68-13.84h39.05v13.84c0 1.5.47 2.74 1.43 3.73a5.17 5.17 0 0 0 3.73 1.43h10.32c1.43 0 2.66-.48 3.68-1.43a4.84 4.84 0 0 0 1.54-3.62v-68.6a5.2 5.2 0 0 0-1.37-3.56 4.22 4.22 0 0 0-3.35-1.54h-29.6Zm92.31 17.47c.99 0 1.8.32 2.42.98.66.63.99 1.41.99 2.37v8.34c0 1-.33 1.8-1 2.42-.62.62-1.42.93-2.4.93h-1.77l-8.45-.33c-4.95 0-9.67 2.71-14.17 8.13v35.09c0 .99-.33 1.8-.99 2.42a3.2 3.2 0 0 1-2.36.93h-12.3c-1 0-1.8-.31-2.42-.93a3.27 3.27 0 0 1-.93-2.42v-6.62a136.7 136.7 0 0 0 25.97-47.67c1.29-.65 2.55-1.2 3.8-1.67 3.47-1.32 8-1.97 13.61-1.97Zm27.18 2.47c1 0 1.8.33 2.42.99.62.62.93 1.4.93 2.36v52.11c0 .99-.33 1.8-.99 2.42a3.2 3.2 0 0 1-2.36.93h-12.3c-.99 0-1.8-.31-2.41-.93a3.27 3.27 0 0 1-.94-2.42v-52.11c0-1 .31-1.8.94-2.42a3.39 3.39 0 0 1 2.41-.93h12.3Zm48.55-21.04c6 0 10.2.22 12.57.66 2.38.44 3.88 1 4.5 1.65a3 3 0 0 1 .94 2.2v6.04c0 .99-.33 1.81-.99 2.47a3.2 3.2 0 0 1-2.36.93h-2.03l-7.58-.93c-7.28 0-12.03.99-14.22 2.97-2.2 1.94-3.3 5.98-3.3 12.13v.88h19.88c.93 0 1.7.29 2.3.87l.24.24c.58.6.87 1.37.87 2.3v6.53c0 .99-.33 1.8-1 2.41-.61.63-1.42.94-2.4.94h-19.89v34.21c0 .99-.33 1.8-.99 2.42a3.2 3.2 0 0 1-2.36.93h-12.3c-.99 0-1.8-.31-2.41-.93a3.27 3.27 0 0 1-.94-2.42v-48.38c0-10.21 2.33-17.44 6.98-21.7 4.64-4.27 12.81-6.42 24.49-6.42ZM206.67 171.8v28.67h-34.98l4.83-17.63a14.54 14.54 0 0 1 5.27-8.02 14.77 14.77 0 0 1 9.23-3.02h15.65Zm103.13-16.64c1.94 0 3.48.57 4.61 1.7 1.13 1.1 1.7 2.64 1.7 4.62v1.87c0 1.94-.56 3.47-1.7 4.6-1.1 1.14-2.64 1.71-4.61 1.71h-6.81a6.23 6.23 0 0 1-4.62-1.7 6.24 6.24 0 0 1-1.7-4.61v-1.87c0-1.94.55-3.48 1.65-4.61 1.14-1.14 2.7-1.7 4.67-1.7h6.8Zm-81.88-77.43c-10.69 0-18.9 2.63-24.6 7.9-5.71 5.24-8.57 13-8.57 23.29 0 10.25 2.86 18.01 8.57 23.28 5.7 5.27 13.91 7.9 24.6 7.9 10.73 0 18.95-2.63 24.66-7.9 5.7-5.27 8.56-13.03 8.56-23.28 0-10.29-2.85-18.05-8.56-23.29-5.72-5.27-13.93-7.9-24.66-7.9ZM115.07 60.14c-1.43 0-2.65.53-3.68 1.6a5.2 5.2 0 0 0-1.54 3.73v68.26a5.2 5.2 0 0 0 1.54 3.73 5.02 5.02 0 0 0 3.68 1.54h10.32c1.43 0 2.64-.48 3.63-1.43a4.84 4.84 0 0 0 1.54-3.62v-26.69h11.8a13 13 0 0 1 8.46 2.85c2.34 1.87 4.67 4.67 6.97 8.4l9.67 15.33c.91 1.43 2.2 2.65 3.84 3.68a9.07 9.07 0 0 0 4.61 1.48h12.58c1.9 0 2.86-.8 2.86-2.42 0-.77-.31-1.68-.94-2.74l-13.73-21.86a49.9 49.9 0 0 0-6.75-8.23c-2.53-2.53-5-4.05-7.41-4.56 3.44-.84 6.22-2.3 8.34-4.34a31.43 31.43 0 0 0 5.82-7.8l11.92-21.58a6.7 6.7 0 0 0 .93-3.02c0-1.54-.87-2.3-2.63-2.3H174.2c-3.33.03-5.97 1.8-7.9 5.32l-8.52 15.16c-2.2 3.91-4.52 6.75-6.97 8.5a14 14 0 0 1-8.46 2.64h-11.8v-26.3a5.2 5.2 0 0 0-1.54-3.73 4.76 4.76 0 0 0-3.63-1.6h-10.32Zm172.1 20.05c1 0 1.8.33 2.42.98.62.63.93 1.41.93 2.37v52.11c0 .99-.33 1.8-.99 2.42a3.2 3.2 0 0 1-2.36.93h-12.3c-.31 0-.6-.03-.88-.1l.01-1.9c0-8.91-.85-17.63-2.48-26.07v-27.4c0-.98.31-1.79.94-2.41a3.4 3.4 0 0 1 2.41-.93h12.3Zm56.18-2.47c7.14 0 12.94 2.17 17.4 6.53 4.48 4.32 6.7 10.95 6.7 19.88v31.52a3.29 3.29 0 0 1-3.4 3.35h-12.24c-.95 0-1.76-.31-2.42-.93a3.4 3.4 0 0 1-.93-2.42v-31.52c0-8.75-3.5-13.13-10.5-13.13-4.57 0-9.47 2.62-14.7 7.86v36.79a3.29 3.29 0 0 1-3.36 3.35h-12.3c-.95 0-1.76-.31-2.42-.93a3.39 3.39 0 0 1-.93-2.42V82.22a3.27 3.27 0 0 1 3.35-3.4h12.3c.95 0 1.74.32 2.36.98.66.63 1 1.43 1 2.42v3.46c6.29-5.31 12.99-7.96 20.1-7.96ZM227.92 90.18c4.9 0 8.5 1.48 10.76 4.45 2.3 2.96 3.46 7.7 3.46 14.22 0 6.52-1.15 11.28-3.46 14.28-2.27 3-5.85 4.5-10.76 4.5-4.87 0-8.44-1.5-10.7-4.5-2.28-3-3.41-7.76-3.41-14.28 0-6.51 1.13-11.26 3.4-14.22 2.27-2.97 5.84-4.45 10.71-4.45Zm56.5-31.03c1.95 0 3.48.57 4.62 1.7 1.13 1.1 1.7 2.64 1.7 4.62v1.87c0 1.94-.56 3.47-1.7 4.6-1.1 1.14-2.64 1.71-4.61 1.71h-6.81a6.23 6.23 0 0 1-4.62-1.7 6.23 6.23 0 0 1-1.7-4.61v-1.87c0-1.94.55-3.48 1.65-4.61 1.13-1.14 2.7-1.7 4.67-1.7h6.8Z"/><defs><linearGradient id="a" x1="128.65" x2="-118.89" y1="336.5" y2="-22.16" gradientUnits="userSpaceOnUse"><stop stop-color="#FFC370"/><stop offset=".96" stop-color="#B444FF"/></linearGradient></defs></svg>
